icons/1_Primary/GoTo.svg

<svg width="1024" height="1024" fill="none" xmlns="http://www.w3.org/2000/svg"><g clip-path="url(#a)"><path d="M512 1024c282.77 0 512-229.23 512-512S794.77 0 512 0 0 229.23 0 512s229.23 512 512 512Z" fill="#F9DE81"/><path d="m798.14 529.31-579.26 60.87 7 66.48 579.26-60.88-7-66.48v.01ZM499.64 404.6a66.833 66.833 0 0 0-37.134 11.265 66.834 66.834 0 0 0-28.422 68.615 66.838 66.838 0 0 0 91.134 48.712 66.834 66.834 0 0 0 29.997-24.618 66.833 66.833 0 0 0 11.265-37.134 66.771 66.771 0 0 0-19.504-47.227 66.75 66.75 0 0 0-47.186-19.603l-.15-.01Zm0 104a37.14 37.14 0 1 1 37.12-37.14 37.14 37.14 0 0 1-37.12 37.12v.02Zm215.12-104a66.842 66.842 0 0 0-47.277 114.1 66.848 66.848 0 0 0 72.843 14.493 66.845 66.845 0 0 0 41.264-61.753 66.772 66.772 0 0 0-66.71-66.83l-.12-.01Zm0 104a37.14 37.14 0 1 1 37.14-37.14 37.14 37.14 0 0 1-37.14 37.12v.02ZM674 400.73V371H540.34v29.71h52v134H622v-134h52v.02Zm-355 37.13v29.71h41c-9.48 24.9-27.55 41-48.49 41a55.697 55.697 0 0 1-55.321-50.322 55.704 55.704 0 0 1 20.149-48.471 55.701 55.701 0 0 1 51.492-10.198 55.697 55.697 0 0 1 23.2 13.921l21.1-21.11a85.386 85.386 0 0 0-76.962-23.252 85.394 85.394 0 0 0-68.3 91.965 85.383 85.383 0 0 0 44.502 66.957 85.389 85.389 0 0 0 40.16 10.21c29.1 0 55.27-18.73 70.71-48.47v44.91H412v-96.85h-93Z" fill="#fff"/></g><defs><clipPath id="a"><path fill="#fff" d="M0 0h1024v1024H0z"/></clipPath></defs></svg>

<svg width="1024" height="1024" viewBox="0 0 1024 1024" fill="none" xmlns="http://www.w3.org/2000/svg">
<g clip-path="url(#clip0_2_2319)">
<path d="M512 1024C794.77 1024 1024 794.77 1024 512C1024 229.23 794.77 0 512 0C229.23 0 0 229.23 0 512C0 794.77 229.23 1024 512 1024Z" fill="#F9DE81"/>
<path d="M798.14 529.31L218.88 590.18L225.88 656.66L805.14 595.78L798.14 529.3V529.31ZM499.64 404.6C486.42 404.6 473.497 408.52 462.506 415.865C451.514 423.209 442.947 433.648 437.888 445.862C432.829 458.075 431.505 471.514 434.084 484.48C436.663 497.446 443.029 509.355 452.377 518.703C461.725 528.051 473.634 534.417 486.6 536.996C499.566 539.575 513.005 538.251 525.218 533.192C537.432 528.133 547.871 519.566 555.215 508.574C562.56 497.583 566.48 484.66 566.48 471.44C566.489 462.673 564.771 453.99 561.425 445.887C558.078 437.784 553.169 430.419 546.976 424.213C540.783 418.007 533.429 413.082 525.333 409.719C517.236 406.355 508.557 404.619 499.79 404.61L499.64 404.6ZM499.64 508.6C492.293 508.604 485.111 506.429 479.001 502.351C472.89 498.272 468.127 492.473 465.313 485.687C462.499 478.901 461.76 471.432 463.191 464.227C464.622 457.021 468.158 450.401 473.351 445.205C478.544 440.009 485.162 436.47 492.367 435.035C499.572 433.601 507.041 434.335 513.828 437.145C520.616 439.956 526.417 444.716 530.499 450.824C534.581 456.932 536.76 464.114 536.76 471.46C536.755 481.303 532.842 490.742 525.882 497.702C518.922 504.662 509.483 508.575 499.64 508.58V508.6ZM714.76 404.6C701.54 404.598 688.616 408.517 677.623 415.86C666.63 423.203 658.061 433.641 653.001 445.855C647.94 458.068 646.615 471.507 649.193 484.474C651.771 497.44 658.136 509.351 667.483 518.7C676.831 528.048 688.74 534.415 701.706 536.995C714.672 539.575 728.112 538.252 740.326 533.193C752.54 528.134 762.98 519.567 770.325 508.575C777.669 497.583 781.59 484.66 781.59 471.44C781.598 462.672 779.878 453.988 776.53 445.884C773.182 437.78 768.27 430.415 762.076 424.209C755.881 418.003 748.525 413.078 740.427 409.716C732.329 406.353 723.648 404.618 714.88 404.61L714.76 404.6ZM714.76 508.6C707.414 508.6 700.234 506.422 694.126 502.341C688.018 498.26 683.258 492.459 680.447 485.673C677.636 478.886 676.9 471.419 678.333 464.214C679.767 457.01 683.304 450.392 688.498 445.198C693.692 440.004 700.31 436.467 707.514 435.034C714.719 433.601 722.186 434.336 728.973 437.147C735.759 439.958 741.56 444.719 745.641 450.826C749.722 456.934 751.9 464.114 751.9 471.46C751.895 481.307 747.979 490.748 741.015 497.709C734.05 504.67 724.607 508.58 714.76 508.58V508.6ZM674 400.73V371H540.34V400.71H592.34V534.71H622V400.71H674V400.73ZM319 437.86V467.57H360C350.52 492.47 332.45 508.57 311.51 508.57C302.354 508.551 293.344 506.274 285.278 501.943C277.211 497.612 270.337 491.358 265.263 483.737C260.189 476.116 257.072 467.361 256.189 458.248C255.305 449.135 256.681 439.944 260.195 431.49C263.71 423.035 269.254 415.578 276.338 409.777C283.421 403.976 291.826 400.01 300.807 398.231C309.789 396.453 319.07 396.915 327.83 399.579C336.59 402.242 344.558 407.023 351.03 413.5L372.13 392.39C362.197 382.493 349.979 375.195 336.557 371.14C323.134 367.085 308.919 366.397 295.168 369.138C281.417 371.879 268.552 377.965 257.71 386.857C246.869 395.749 238.383 407.174 233.004 420.123C227.625 433.072 225.518 447.146 226.868 461.103C228.218 475.06 232.984 488.469 240.746 500.147C248.507 511.825 259.025 521.411 271.37 528.06C283.716 534.709 297.508 538.216 311.53 538.27C340.63 538.27 366.8 519.54 382.24 489.8V534.71H412V437.86H319Z" fill="white"/>
</g>
<defs>
<clipPath id="clip0_2_2319">
<rect width="1024" height="1024" fill="white"/>
</clipPath>
</defs>
</svg>
